X:069
T:Double Kisses TS.069
T:Kiss Her Twice, aka TS.069
M:C
L:1/8
Q:1/2=90
S:Thomas Sands’ MS,1810,Lincolnshire
R:reel
O:England;Lincolnshire
Z:vmp.Ruairidh Greig, 2011
K:C
e|c2GEc2ce|c2GE dDDe|c2GF cdec|eagf ecc:|
e/f/|gcge gc c(e/f/)|gcge a(d d)(e/f/)|gcge gcge|fagf ec c(e/f/)|
gcge gc c(e/f/)|gcge ad df/g/|afge fdec|Aagf ecc|]

